;FLAVOR:Marlin
;TIME:5129
;Filament used: 1.89229m
;Layer height: 0.12
;MINX:55.05
;MINY:76.975
;MINZ:0.12
;MAXX:179.95
;MAXY:158.025
;MAXZ:1.44
;Generated with Cura_SteamEngine 4.5.0
M140 S50
M105
M190 S50
M104 S200
M105
M109 S200
M82 ;absolute extrusion mode
; Ender 3 Custom Start G-code
G92 E0 ; Reset Extruder
G28 ; Home all axes
G1 Z2.0 F3000 ; Move Z Axis up little to prevent scratching of Heat Bed
G1 X0.1 Y20 Z0.3 F5000.0 ; Move to start position
G1 X0.1 Y200.0 Z0.3 F1500.0 E15 ; Draw the first line
G1 X0.4 Y200.0 Z0.3 F5000.0 ; Move to side a little
G1 X0.4 Y20 Z0.3 F1500.0 E30 ; Draw the second line
G92 E0 ; Reset Extruder
G1 Z2.0 F3000 ; Move Z Axis up little to prevent scratching of Heat Bed
G1 X5 Y20 Z0.3 F5000.0 ; Move over to prevent blob squish
G92 E0
G92 E0
G1 F2700 E-5
;LAYER_COUNT:12
;LAYER:0
M107
G0 F6000 X59.676 Y79.026 Z0.12
;TYPE:SKIRT
G1 F2700 E0
G1 F1200 X60.462 Y78.514 E0.01872
G1 X61.289 Y78.072 E0.03743
G1 X62.151 Y77.702 E0.05615
G1 X63.041 Y77.406 E0.07487
G1 X63.953 Y77.188 E0.09358
G1 X64.88 Y77.047 E0.11229
G1 X65.751 Y76.988 E0.12972
G1 X66.38 Y76.975 E0.14227
G1 X168.243 Y76.975 E2.17506
G1 X168.401 Y76.976 E2.17821
G1 X169.099 Y76.986 E2.19214
G1 X170.035 Y77.04 E2.21085
G1 X170.963 Y77.172 E2.22956
G1 X171.877 Y77.384 E2.24828
G1 X172.769 Y77.673 E2.26699
G1 X173.634 Y78.036 E2.28571
G1 X174.464 Y78.472 E2.30442
G1 X175.255 Y78.977 E2.32315
G1 X175.999 Y79.548 E2.34187
G1 X176.692 Y80.18 E2.36058
G1 X177.329 Y80.868 E2.3793
G1 X177.904 Y81.609 E2.39801
G1 X178.415 Y82.395 E2.41672
G1 X178.857 Y83.223 E2.43545
G1 X179.226 Y84.085 E2.45416
G1 X179.521 Y84.975 E2.47288
G1 X179.739 Y85.887 E2.49159
G1 X179.879 Y86.815 E2.51032
G1 X179.937 Y87.676 E2.52754
G1 X179.95 Y88.305 E2.54009
G1 X179.949 Y115.39 E3.0806
G1 X179.939 Y116.117 E3.09511
G1 X179.886 Y117.054 E3.11384
G1 X179.754 Y117.982 E3.13255
G1 X179.543 Y118.896 E3.15127
G1 X179.254 Y119.788 E3.16998
G1 X178.891 Y120.653 E3.1887
G1 X178.456 Y121.484 E3.20742
G1 X177.951 Y122.274 E3.22613
G1 X177.381 Y123.019 E3.24485
G1 X176.75 Y123.713 E3.26357
G1 X176.061 Y124.35 E3.28229
G1 X175.321 Y124.926 E3.30101
G1 X174.535 Y125.437 E3.31971
G1 X173.779 Y125.844 E3.33685
G1 X172.787 Y126.33 E3.35889
G1 X170.33 Y127.563 E3.41375
G1 X168.092 Y128.77 E3.4645
G1 X165.935 Y130.012 E3.51417
G1 X163.773 Y131.341 E3.56481
G1 X161.685 Y132.706 E3.61459
G1 X159.583 Y134.169 E3.6657
G1 X157.598 Y135.632 E3.71491
G1 X155.604 Y137.194 E3.76546
G1 X153.663 Y138.803 E3.81577
G1 X151.772 Y140.464 E3.866
G1 X149.912 Y142.193 E3.91668
G1 X148.151 Y143.925 E3.96597
G1 X146.393 Y145.754 E4.0166
G1 X144.703 Y147.616 E4.06678
G1 X143.057 Y149.536 E4.11725
G1 X141.505 Y151.454 E4.16648
G1 X140.582 Y152.677 E4.19706
G1 X139.716 Y153.784 E4.22511
G1 X139.107 Y154.497 E4.24382
G1 X138.44 Y155.156 E4.26253
G1 X137.719 Y155.756 E4.28125
G1 X136.949 Y156.292 E4.29997
G1 X136.137 Y156.76 E4.31868
G1 X135.287 Y157.158 E4.33741
G1 X134.407 Y157.482 E4.35612
G1 X133.502 Y157.73 E4.37485
G1 X132.58 Y157.899 E4.39355
G1 X131.348 Y158.002 E4.41822
G1 X130.347 Y158.025 E4.43821
G1 X66.757 Y158.025 E5.70721
G1 X66.599 Y158.024 E5.71037
G1 X65.901 Y158.014 E5.7243
G1 X64.965 Y157.96 E5.74301
G1 X64.037 Y157.828 E5.76171
G1 X63.123 Y157.616 E5.78044
G1 X62.231 Y157.327 E5.79915
G1 X61.366 Y156.964 E5.81787
G1 X60.536 Y156.528 E5.83658
G1 X59.745 Y156.023 E5.85531
G1 X59.001 Y155.452 E5.87402
G1 X58.308 Y154.82 E5.89274
G1 X57.671 Y154.132 E5.91145
G1 X57.096 Y153.391 E5.93017
G1 X56.585 Y152.605 E5.94888
G1 X56.143 Y151.777 E5.96761
G1 X55.774 Y150.915 E5.98632
G1 X55.479 Y150.025 E6.00503
G1 X55.261 Y149.113 E6.02374
G1 X55.121 Y148.185 E6.04247
G1 X55.063 Y147.313 E6.05991
G1 X55.05 Y146.683 E6.07249
G1 X55.05 Y88.649 E7.23062
G1 X55.06 Y87.835 E7.24686
G1 X55.113 Y86.899 E7.26557
G1 X55.245 Y85.97 E7.2843
G1 X55.456 Y85.056 E7.30302
G1 X55.744 Y84.164 E7.32172
G1 X56.107 Y83.299 E7.34044
G1 X56.542 Y82.468 E7.35916
G1 X57.046 Y81.678 E7.37786
G1 X57.616 Y80.933 E7.39658
G1 X58.248 Y80.239 E7.41531
G1 X58.936 Y79.602 E7.43402
G1 X59.676 Y79.026 E7.45274
G0 F6000 X60.06 Y79.245
G1 F1200 X60.841 Y78.757 E7.47112
G1 X61.661 Y78.339 E7.48948
G1 X62.515 Y77.994 E7.50786
G1 X63.395 Y77.724 E7.52623
G1 X64.295 Y77.532 E7.5446
G1 X65.209 Y77.418 E7.56298
G1 X65.762 Y77.388 E7.57403
G1 X66.38 Y77.375 E7.58637
G1 X168.243 Y77.375 E9.61915
G1 X168.395 Y77.376 E9.62219
G1 X169.093 Y77.386 E9.63612
G1 X170.012 Y77.439 E9.65449
G1 X170.923 Y77.572 E9.67286
G1 X171.819 Y77.783 E9.69123
G1 X172.693 Y78.071 E9.70959
G1 X173.54 Y78.434 E9.72798
G1 X174.351 Y78.869 E9.74635
G1 X175.121 Y79.373 E9.76471
G1 X175.845 Y79.942 E9.78309
G1 X176.517 Y80.572 E9.80147
G1 X177.132 Y81.257 E9.81984
G1 X177.685 Y81.993 E9.83822
G1 X178.172 Y82.774 E9.85658
G1 X178.589 Y83.595 E9.87496
G1 X178.934 Y84.449 E9.89334
G1 X179.203 Y85.329 E9.9117
G1 X179.395 Y86.23 E9.93009
G1 X179.508 Y87.143 E9.94845
G1 X179.537 Y87.687 E9.95932
G1 X179.55 Y88.305 E9.97165
G1 X179.549 Y115.385 E10.51206
G1 X179.539 Y116.112 E10.52657
G1 X179.486 Y117.031 E10.54494
G1 X179.354 Y117.942 E10.56331
G1 X179.143 Y118.838 E10.58168
G1 X178.856 Y119.713 E10.60006
G1 X178.493 Y120.559 E10.61843
G1 X178.059 Y121.371 E10.63681
G1 X177.555 Y122.142 E10.65519
G1 X176.987 Y122.866 E10.67355
G1 X176.358 Y123.538 E10.69192
G1 X175.673 Y124.153 E10.71029
G1 X174.937 Y124.706 E10.72866
G1 X174.156 Y125.194 E10.74704
G1 X173.603 Y125.485 E10.75951
G1 X172.572 Y125.99 E10.78242
G1 X170.153 Y127.204 E10.83643
G1 X167.908 Y128.414 E10.88733
G1 X165.706 Y129.683 E10.93805
G1 X163.566 Y130.999 E10.98818
G1 X161.467 Y132.37 E11.03821
G1 X159.38 Y133.822 E11.08895
G1 X157.338 Y135.328 E11.13958
G1 X155.348 Y136.887 E11.19003
G1 X153.389 Y138.51 E11.2408
G1 X151.519 Y140.153 E11.29047
G1 X149.643 Y141.897 E11.34159
G1 X147.865 Y143.645 E11.39135
G1 X146.092 Y145.491 E11.44243
G1 X144.402 Y147.353 E11.49261
G1 X142.744 Y149.287 E11.54344
G1 X141.183 Y151.215 E11.59295
G1 X140.267 Y152.43 E11.62331
G1 X139.401 Y153.537 E11.65136
G1 X138.803 Y154.237 E11.66973
G1 X138.146 Y154.882 E11.68811
G1 X137.436 Y155.468 E11.70648
G1 X136.677 Y155.99 E11.72486
G1 X135.877 Y156.444 E11.74322
G1 X135.039 Y156.827 E11.76161
G1 X134.172 Y157.136 E11.77997
G1 X133.281 Y157.369 E11.79835
G1 X132.374 Y157.523 E11.81671
G1 X131.338 Y157.602 E11.83745
G1 X130.347 Y157.625 E11.85723
G1 X66.757 Y157.625 E13.12624
G1 X66.605 Y157.624 E13.12927
G1 X65.907 Y157.614 E13.1432
G1 X64.988 Y157.561 E13.16157
G1 X64.077 Y157.428 E13.17994
G1 X63.181 Y157.217 E13.19831
G1 X62.307 Y156.929 E13.21668
G1 X61.46 Y156.566 E13.23507
G1 X60.649 Y156.131 E13.25343
G1 X59.879 Y155.627 E13.2718
G1 X59.155 Y155.058 E13.29017
G1 X58.483 Y154.428 E13.30856
G1 X57.868 Y153.743 E13.32693
G1 X57.315 Y153.007 E13.3453
G1 X56.828 Y152.226 E13.36367
G1 X56.411 Y151.405 E13.38204
G1 X56.066 Y150.551 E13.40042
G1 X55.797 Y149.671 E13.41879
G1 X55.605 Y148.77 E13.43717
G1 X55.492 Y147.857 E13.45553
G1 X55.463 Y147.302 E13.46662
G1 X55.45 Y146.683 E13.47898
G1 X55.45 Y88.649 E14.63711
G1 X55.46 Y87.841 E14.65323
G1 X55.512 Y86.921 E14.67162
G1 X55.644 Y86.01 E14.68999
G1 X55.855 Y85.114 E14.70836
G1 X56.142 Y84.239 E14.72674
G1 X56.505 Y83.393 E14.74511
G1 X56.939 Y82.581 E14.76348
G1 X57.442 Y81.81 E14.78185
G1 X58.011 Y81.086 E14.80023
G1 X58.639 Y80.414 E14.81858
G1 X59.324 Y79.798 E14.83697
G1 X60.06 Y79.245 E14.85534
G0 F6000 X60.444 Y79.469
G1 F1200 X61.219 Y79.006 E14.87336
G1 X62.032 Y78.613 E14.89138
G1 X62.877 Y78.293 E14.90941
G1 X63.746 Y78.05 E14.92742
G1 X64.634 Y77.884 E14.94544
G1 X65.773 Y77.788 E14.96825
G1 X66.38 Y77.775 E14.98037
G1 X168.243 Y77.775 E17.01316
G1 X168.389 Y77.776 E17.01607
G1 X169.087 Y77.786 E17.03
G1 X169.989 Y77.839 E17.04803
G1 X170.882 Y77.971 E17.06605
G1 X171.76 Y78.182 E17.08407
G1 X172.616 Y78.47 E17.10209
G1 X173.443 Y78.832 E17.12011
G1 X174.235 Y79.267 E17.13814
G1 X174.986 Y79.769 E17.15617
G1 X175.689 Y80.336 E17.17419
G1 X176.339 Y80.963 E17.19221
G1 X176.931 Y81.645 E17.21023
G1 X177.461 Y82.376 E17.22825
G1 X177.923 Y83.152 E17.24628
G1 X178.316 Y83.965 E17.2643
G1 X178.634 Y84.81 E17.28231
G1 X178.877 Y85.68 E17.30034
G1 X179.042 Y86.568 E17.31836
G1 X179.137 Y87.698 E17.34099
G1 X179.15 Y88.305 E17.35311
G1 X179.149 Y115.379 E17.8934
G1 X179.139 Y116.106 E17.90791
G1 X179.087 Y117.008 E17.92594
G1 X178.955 Y117.901 E17.94395
G1 X178.744 Y118.78 E17.96199
G1 X178.457 Y119.636 E17.98001
G1 X178.095 Y120.463 E17.99803
G1 X177.661 Y121.255 E18.01605
G1 X177.159 Y122.006 E18.03408
G1 X176.593 Y122.709 E18.05209
G1 X175.966 Y123.36 E18.07012
G1 X175.285 Y123.952 E18.08813
G1 X174.554 Y124.482 E18.10615
G1 X173.427 Y125.126 E18.13205
G1 X172.396 Y125.631 E18.15496
G1 X169.936 Y126.865 E18.20989
G1 X167.741 Y128.049 E18.25966
G1 X165.503 Y129.338 E18.3112
G1 X163.369 Y130.65 E18.36119
G1 X161.218 Y132.056 E18.41247
G1 X159.161 Y133.487 E18.46248
G1 X157.083 Y135.02 E18.51401
G1 X155.091 Y136.579 E18.56449
G1 X153.153 Y138.186 E18.61473
G1 X151.228 Y139.877 E18.66586
G1 X149.372 Y141.602 E18.71643
G1 X147.579 Y143.365 E18.76661
G1 X145.807 Y145.21 E18.81766
G1 X144.085 Y147.107 E18.86879
G1 X142.459 Y149.004 E18.91865
G1 X140.862 Y150.977 E18.9693
G1 X139.952 Y152.184 E18.99947
G1 X139.086 Y153.291 E19.02751
G1 X138.498 Y153.977 E19.04555
G1 X137.853 Y154.608 E19.06355
G1 X137.154 Y155.18 E19.08158
G1 X136.407 Y155.687 E19.09959
G1 X135.618 Y156.127 E19.11762
G1 X134.793 Y156.495 E19.13565
G1 X133.939 Y156.789 E19.15367
G1 X133.062 Y157.006 E19.1717
G1 X132.17 Y157.145 E19.18972
G1 X131.327 Y157.202 E19.20658
G1 X130.347 Y157.225 E19.22614
G1 X66.757 Y157.225 E20.49515
G1 X66.611 Y157.224 E20.49806
G1 X65.913 Y157.214 E20.51199
G1 X65.011 Y157.161 E20.53002
G1 X64.118 Y157.029 E20.54804
G1 X63.24 Y156.818 E20.56606
G1 X62.384 Y156.53 E20.58408
G1 X61.557 Y156.168 E20.6021
G1 X60.765 Y155.733 E20.62013
G1 X60.014 Y155.231 E20.63816
G1 X59.311 Y154.664 E20.65618
G1 X58.661 Y154.037 E20.6742
G1 X58.069 Y153.355 E20.69223
G1 X57.539 Y152.624 E20.71024
G1 X57.077 Y151.848 E20.72827
G1 X56.684 Y151.035 E20.74629
G1 X56.366 Y150.19 E20.76431
G1 X56.123 Y149.32 E20.78233
G1 X55.958 Y148.432 E20.80036
G1 X55.863 Y147.291 E20.8232
G1 X55.85 Y146.683 E20.83534
G1 X55.85 Y88.649 E21.99347
G1 X55.86 Y87.846 E22.0095
G1 X55.912 Y86.944 E22.02753
G1 X56.044 Y86.051 E22.04554
G1 X56.254 Y85.173 E22.06356
G1 X56.541 Y84.316 E22.08159
G1 X56.903 Y83.489 E22.09961
G1 X57.336 Y82.697 E22.11762
G1 X57.838 Y81.946 E22.13565
G1 X58.405 Y81.242 E22.15369
G1 X59.031 Y80.592 E22.1717
G1 X59.712 Y79.999 E22.18972
G1 X60.444 Y79.469 E22.20775
G1 F2700 E17.20775
;MESH:e9d6a155-a291-456b-be91-53d772c3c7a7.stl
G0 F6000 X69.898 Y142.465
G0 X69.416 Y140.657
G0 X71.248 Y141.827
G0 X71.517 Y142.179
G0 X71.685 Y142.587
G0 X71.744 Y143.025
G0 X71.712 Y143.272
G0 X71.179 Y144.983
;TYPE:WALL-INNER
G1 F2700 E22.20775
G1 F1200 X71.647 Y144.622 E22.21955
G1 X72.008 Y144.154 E22.23134
G1 X72.232 Y143.609 E22.2431
G1 X72.31 Y143.025 E22.25486
G1 X72.232 Y142.441 E22.26662
G1 X72.008 Y141.896 E22.27838
G1 X71.647 Y141.428 E22.29017
G1 X71.179 Y141.067 E22.30197
G1 X70.634 Y140.843 E22.31373
G1 X70.05 Y140.765 E22.32548
G1 X69.466 Y140.843 E22.33724
G1 X68.921 Y141.067 E22.349
G1 X68.453 Y141.428 E22.3608
G1 X68.092 Y141.896 E22.37259
G1 X67.868 Y142.441 E22.38435
G1 X67.79 Y143.025 E22.39611
G1 X67.868 Y143.609 E22.40786
G1 X68.092 Y144.154 E22.41962
G1 X68.453 Y144.622 E22.43142
G1 X68.921 Y144.983 E22.44321
G1 X69.466 Y145.207 E22.45497
G1 X70.05 Y145.285 E22.46673
G1 X70.634 Y145.207 E22.47849
G1 X71.179 Y144.983 E22.49025
G0 F6000 X70.977 Y144.633
G1 F1200 X71.362 Y144.337 E22.49994
G1 X71.658 Y143.952 E22.50963
G1 X71.842 Y143.505 E22.51928
G1 X71.906 Y143.025 E22.52894
G1 X71.842 Y142.545 E22.5386
G1 X71.658 Y142.098 E22.54825
G1 X71.362 Y141.713 E22.55794
G1 X70.977 Y141.417 E22.56763
G1 X70.53 Y141.233 E22.57728
G1 X70.05 Y141.169 E22.58694
G1 X69.57 Y141.233 E22.59661
G1 X69.123 Y141.417 E22.60625
G1 X68.738 Y141.713 E22.61595
G1 X68.442 Y142.098 E22.62564
G1 X68.258 Y142.545 E22.63528
G1 X68.194 Y143.025 E22.64495
G1 X68.258 Y143.505 E22.65461
G1 X68.442 Y143.952 E22.66426
G1 X68.738 Y144.337 E22.67395
G1 X69.123 Y144.633 E22.68364
G1 X69.57 Y144.817 E22.69329
G1 X70.05 Y144.881 E22.70295
G1 X70.53 Y144.817 E22.71261
G1 X70.977 Y144.633 E22.72226
G0 F6000 X70.776 Y144.283
;TYPE:WALL-OUTER
G1 F1200 X71.077 Y144.052 E22.72983
G1 X71.308 Y143.751 E22.7374
G1 X71.452 Y143.401 E22.74496
G1 X71.502 Y143.025 E22.75253
G1 X71.452 Y142.649 E22.7601
G1 X71.308 Y142.299 E22.76765
G1 X71.077 Y141.998 E22.77522
G1 X70.776 Y141.767 E22.78279
G1 X70.426 Y141.623 E22.79034
G1 X70.05 Y141.573 E22.79791
G1 X69.674 Y141.623 E22.80548
G1 X69.324 Y141.767 E22.81304
G1 X69.023 Y141.998 E22.82061
G1 X68.792 Y142.299 E22.82818
G1 X68.648 Y142.649 E22.83573
G1 X68.598 Y143.025 E22.8433
G1 X68.648 Y143.401 E22.85087
G1 X68.792 Y143.751 E22.85842
G1 X69.023 Y144.052 E22.866
G1 X69.324 Y144.283 E22.87357
G1 X69.674 Y144.427 E22.88112
G1 X70.05 Y144.477 E22.88869
G1 X70.426 Y144.427 E22.89626
G1 X70.776 Y144.283 E22.90381
G0 F6000 X70.995 Y144.664
G1 F2700 E17.90381
G0 F6000 X71.517 Y143.871
G0 X71.685 Y143.463
G0 X71.744 Y143.025
G0 X71.685 Y142.587
G0 X71.517 Y142.179
G0 X70.05 Y140.573
G0 X70.05 Y142.446
G0 X70.05 Y92.554
G0 X70.05 Y94.427
G0 X70.634 Y94.157
;TYPE:WALL-INNER
G1 F2700 E22.90381
G1 F1200 X71.179 Y93.933 E22.91557
G1 X71.647 Y93.572 E22.92737
G1 X72.008 Y93.104 E22.93916
G1 X72.232 Y92.559 E22.95092
G1 X72.31 Y91.975 E22.96268
G1 X72.232 Y91.391 E22.97444
G1 X72.008 Y90.846 E22.9862
G1 X71.647 Y90.378 E22.99799
G1 X71.179 Y90.017 E23.00979
G1 X70.634 Y89.793 E23.02154
G1 X70.05 Y89.715 E23.0333
G1 X69.466 Y89.793 E23.04506
G1 X68.921 Y90.017 E23.05682
G1 X68.453 Y90.378 E23.06861
G1 X68.092 Y90.846 E23.08041
G1 X67.868 Y91.391 E23.09217
G1 X67.79 Y91.975 E23.10393
G1 X67.868 Y92.559 E23.11568
G1 X68.092 Y93.104 E23.12744
G1 X68.453 Y93.572 E23.13924
G1 X68.921 Y93.933 E23.15103
G1 X69.466 Y94.157 E23.16279
G1 X70.05 Y94.235 E23.17455
G1 X70.634 Y94.157 E23.18631
G0 F6000 X70.53 Y93.767
G1 F1200 X70.977 Y93.583 E23.19595
G1 X71.362 Y93.287 E23.20565
G1 X71.658 Y92.902 E23.21534
G1 X71.842 Y92.455 E23.22498
G1 X71.906 Y91.975 E23.23465
G1 X71.842 Y91.495 E23.24431
G1 X71.658 Y91.048 E23.25396
G1 X71.362 Y90.663 E23.26365
G1 X70.977 Y90.367 E23.27334
G1 X70.53 Y90.183 E23.28299
G1 X70.05 Y90.119 E23.29265
G1 X69.57 Y90.183 E23.30231
G1 X69.123 Y90.367 E23.31196
G1 X68.738 Y90.663 E23.32165
G1 X68.442 Y91.048 E23.33134
G1 X68.258 Y91.495 E23.34099
G1 X68.194 Y91.975 E23.35065
G1 X68.258 Y92.455 E23.36032
G1 X68.442 Y92.902 E23.36996
G1 X68.738 Y93.287 E23.37965
G1 X69.123 Y93.583 E23.38935
G1 X69.57 Y93.767 E23.39899
G1 X70.05 Y93.831 E23.40866
G1 X70.53 Y93.767 E23.41832
G0 F6000 X70.426 Y93.377
;TYPE:WALL-OUTER
G1 F1200 X70.776 Y93.233 E23.42587
G1 X71.077 Y93.002 E23.43344
G1 X71.308 Y92.701 E23.44102
G1 X71.452 Y92.351 E23.44857
G1 X71.502 Y91.975 E23.45614
G1 X71.452 Y91.599 E23.46371
G1 X71.308 Y91.249 E23.47126
G1 X71.077 Y90.948 E23.47883
G1 X70.776 Y90.717 E23.4864
G1 X70.426 Y90.573 E23.49396
G1 X70.05 Y90.523 E23.50153
G1 X69.674 Y90.573 E23.5091
G1 X69.324 Y90.717 E23.51665
G1 X69.023 Y90.948 E23.52422
G1 X68.792 Y91.249 E23.53179
G1 X68.648 Y91.599 E23.53935
G1 X68.598 Y91.975 E23.54691
G1 X68.648 Y92.351 E23.55448
G1 X68.792 Y92.701 E23.56204
G1 X69.023 Y93.002 E23.56961
G1 X69.324 Y93.233 E23.57718
G1 X69.674 Y93.377 E23.58473
